X: 2
T: Brian O'Lynn
R: jig
M: 6/8
L: 1/8
K: Ador
B|:"Am"cAd cAG|"Em"EDE GAB|"Am"cAd cAG|"Am"EAA A2B|"Am"ccc cAG|
"Em"EDE GAB|"Am"cde =fed|1 "Am"cAA A2B:|2 "Am"cAA A2e/2f/2|
"Em"ggg ged|"Am"cAB cde|"Am"eaa age|"D"ed^c def|
"G"gaf ged|"Am"cAB cde|"Am"=fed cAG|"Am" EAA A2e/2f/2:|


Tune 830	Setting 21447

